X: 17090
T: Hector The Hero
R: waltz
M: 3/4
K: Amajor
|:A2|
c3 B A2|f2 e2 c2|e6|e4 A2|c3 B A2|f2 e2 c2|B6-|B4 A2|
c3 B A2|f2 e2 c2|e4 A2|a4 f2|e2 A2 c2|B4 A2|A6-|A4:|
c2|f2 g2 f2|a2 g2 f2|e6-|e4 c2|f2 e2 c2|e2 A2 c2|B6-|B4 c2|
f3 g f2|a2 g2 f2|e2 A2 B2|c2 a2 f2|e2 A2 c2|B4 A2|A6-|A4 c2|
f2 g2 f2|a2 g2 f2|e6-|e4 c2|f2 e2 c2|e2 A2 c2|B6-|B4 ed|
c3 B A2|f2 e2 c2|e3 A A2|Ha4 f2|e2 A2 c2|HB4 A2|A6-|A4||

